X:1
T:Title
%%score 1 2
L:1/8
Q:1/4=70
M:3/4
K:Eb
V:1 treble nm="Strings 1, Soprano"
V:2 bass nm="Strings 1, Bass"
V:1
 z2 z E [EG][EG] | [EG]3 [DF] E[EG] | [GB]3 [GB] [Ac][GB] | [EG]3 [EB] [DA][EG] | %4
w: 1.~O~ bless ed~|Lamb~ of~ God~ so~|dear!~ For~ Thou~ hast~|come~ my~ heart~ to~|
 [DF]3 E [EG][EG] | [EG]3 [DF] [B,E][EG] | [GB]3 [EB] [Ec][Ec] | [EB]E [EG]3 [DF] | %8
w: cheer;~ Thy~ blood~ a|lone~ hath~ made~ me~|free,~ That~ cleans ing~|stream~ from~ Cal va|
 [B,E]3 [DF] [DF][EG] | [FA]3 [Ac] [GB][FA] | [EG]3 [GB] [GB][GB] | [Fd]3 [Fe] [EG][E=A] | %12
w: ry.~ * * *||||
 [DB]3 [FA] [EG][EG] | [EG]3 [DF] [B,E][EG] | [GB]3 [EB] [Ec][Ec] | [EB]E [EG]3 [DF] | [B,E]4 z2 |] %17
w: |||||
V:2
 z2 z [E,G,] [E,B,][E,B,] | [E,B,]3 [B,,A,] [E,G,][E,B,] | [E,E]3 [E,E] [E,E][E,E] | %3
 [E,B,]3 [G,B,] [F,B,][E,B,] | [B,,B,]3 [E,G,] [E,B,][E,B,] | [E,B,]3 [B,,A,] [E,G,][E,B,] | %6
 [E,E]3 [E,G,] [A,,A,][A,,A,] | [E,G,][C,=A,] [B,,B,]3 [B,,_A,] | [E,G,]3 [B,,B,] [B,,B,][B,,B,] | %9
 [B,,B,]3 [B,,B,] [B,,B,][B,,B,] | [E,B,]3 [E,E] [E,E][E,E] | [F,B,]3 [F,=A,] [F,C][F,C] | %12
 [B,,B,]3 [D,B,] [E,B,][E,B,] | [E,B,]3 [B,,A,] [E,G,][E,B,] | [E,E]3 [E,G,] [A,,A,][A,,A,] | %15
 [E,G,][C,=A,] [B,,B,]3 [B,,_A,] | [E,G,]4 z2 |] %17

